Obsidian/actions/22s/format-list-unordered.svg

<svg height="22" viewBox="0 0 22 22" width="22" xmlns="http://www.w3.org/2000/svg"><path d="m3.5 2a2.5 2.5 0 0 0 -2.5 2.5 2.5 2.5 0 0 0 2.5 2.5 2.5 2.5 0 0 0 2.5-2.5 2.5 2.5 0 0 0 -2.5-2.5zm4.5 0v2h6v-2zm0 3v2h4v-2zm-4.5 5a2.5 2.5 0 0 0 -2.5 2.5 2.5 2.5 0 0 0 2.5 2.5 2.5 2.5 0 0 0 2.5-2.5 2.5 2.5 0 0 0 -2.5-2.5zm4.5 0v2h6v-2zm0 3v2h2v-2zm3 0v2h3v-2z" fill="#bebebe" transform="translate(3 3)"/></svg>

<svg xmlns="http://www.w3.org/2000/svg" width="22" height="22" viewBox="0 0 22 22">
 <defs>
  <style id="current-color-scheme" type="text/css">
   .ColorScheme-Text { color:#bebebe; } .ColorScheme-Highlight { color:#4285f4; }
  </style>
 </defs>
 <path style="fill:currentColor" class="ColorScheme-Text" d="M 3.5 2 A 2.5 2.5 0 0 0 1 4.5 A 2.5 2.5 0 0 0 3.5 7 A 2.5 2.5 0 0 0 6 4.5 A 2.5 2.5 0 0 0 3.5 2 z M 8 2 L 8 4 L 14 4 L 14 2 L 8 2 z M 8 5 L 8 7 L 12 7 L 12 5 L 8 5 z M 3.5 10 A 2.5 2.5 0 0 0 1 12.5 A 2.5 2.5 0 0 0 3.5 15 A 2.5 2.5 0 0 0 6 12.5 A 2.5 2.5 0 0 0 3.5 10 z M 8 10 L 8 12 L 14 12 L 14 10 L 8 10 z M 8 13 L 8 15 L 10 15 L 10 13 L 8 13 z M 11 13 L 11 15 L 14 15 L 14 13 L 11 13 z" transform="translate(3 3)"/>
</svg>
